resources/svg/linux-alt.svg

<svg width="15" height="15" viewBox="0 0 15 15" fill="none" xmlns="http://www.w3.org/2000/svg">
<path fill-rule="evenodd" clip-rule="evenodd" d="M4.53918 2.40715C4.82145 1.0075 6.06066 0 7.49996 0C8.93926 0 10.1785 1.0075 10.4607 2.40715L10.798 4.07944C10.9743 4.9539 11.3217 5.78562 11.8205 6.52763L12.4009 7.39103C12.7631 7.92978 12.9999 8.5385 13.0979 9.17323C13.6747 9.22167 14.1803 9.58851 14.398 10.1283L14.8897 11.3474C15.1376 11.962 14.9583 12.665 14.4455 13.0887L12.5614 14.6458C12.0128 15.0992 11.2219 15.1193 10.6506 14.6944L9.89192 14.1301C9.88189 14.1227 9.87197 14.1151 9.86216 14.1074C9.48973 14.2075 9.09793 14.261 8.69355 14.261H6.30637C5.90201 14.261 5.51023 14.2076 5.13782 14.1074C5.12802 14.1151 5.11811 14.1227 5.10808 14.1301L4.34942 14.6944C3.77811 15.1193 2.98725 15.0992 2.43863 14.6458L0.55446 13.0887C0.0417175 12.665 -0.1376 11.962 0.110281 11.3474L0.602025 10.1283C0.819715 9.58854 1.32527 9.2217 1.90198 9.17324C2 8.5385 2.2368 7.92978 2.59897 7.39103L3.17938 6.52763C3.67818 5.78562 4.02557 4.9539 4.20193 4.07944L4.53918 2.40715ZM10.8445 9.47585C10.6345 9.63293 10.4642 9.84382 10.3561 10.0938L9.58799 11.8713C9.20026 12.0979 8.75209 12.2237 8.28465 12.2237H6.7153C6.24789 12.2237 5.79975 12.0979 5.41203 11.8714L4.64386 10.0938C4.53581 9.8438 4.36552 9.6329 4.15546 9.47582C4.18121 9.15355 4.2689 8.83503 4.41853 8.53826L5.67678 6.04259L5.68433 6.05007C6.68715 7.04458 8.31304 7.04458 9.31585 6.05007L9.32324 6.04274L10.5814 8.53825C10.7311 8.83504 10.8187 9.15357 10.8445 9.47585ZM9.04068 4.26906V3.05592H8.01353V3.85713C8.23151 3.90123 8.44506 3.97371 8.64848 4.07458L9.04068 4.26906ZM6.98638 3.85718V3.05592H5.95923V4.26919L6.3517 4.07458C6.55504 3.97375 6.7685 3.90129 6.98638 3.85718ZM2.03255 10.1864C1.82255 10.1864 1.6337 10.3132 1.55571 10.5066L1.06397 11.7257C0.981339 11.9306 1.04111 12.1649 1.21203 12.3062L3.0962 13.8633C3.27907 14.0144 3.54269 14.0211 3.73313 13.8795L4.49179 13.3152C4.6813 13.1743 4.74901 12.923 4.6557 12.7071L3.69976 10.4951C3.61884 10.3078 3.43316 10.1864 3.22771 10.1864H2.03255ZM13.4443 10.5066C13.3663 10.3132 13.1775 10.1864 12.9674 10.1864H11.7723C11.5668 10.1864 11.3812 10.3078 11.3002 10.4951L10.3443 12.7071C10.251 12.923 10.3187 13.1743 10.5082 13.3152L11.2669 13.8795C11.4573 14.0211 11.7209 14.0144 11.9038 13.8633L13.788 12.3062C13.9589 12.1649 14.0187 11.9306 13.936 11.7257L13.4443 10.5066ZM6.81106 4.98568C7.24481 4.7706 7.75537 4.7706 8.18912 4.98568L8.68739 5.23275L8.58955 5.32978C7.98786 5.92649 7.01232 5.92649 6.41063 5.32978L6.31279 5.23275L6.81106 4.98568Z" fill="black"/>
</svg>

<svg viewBox="0 0 15 15" fill="none" xmlns="http://www.w3.org/2000/svg" fill="currentColor"><path fill-rule="evenodd" clip-rule="evenodd" d="M4.54 2.407A3.013 3.013 0 017.5 0a3.013 3.013 0 012.96 2.407l.338 1.672a6.796 6.796 0 001.022 2.449l.58.863c.363.539.6 1.148.698 1.782a1.54 1.54 0 011.3.955l.492 1.22a1.52 1.52 0 01-.445 1.74l-1.884 1.558a1.55 1.55 0 01-1.91.048l-.76-.564a1.256 1.256 0 01-.029-.023c-.372.1-.764.154-1.168.154H6.306c-.404 0-.796-.053-1.168-.154l-.03.023-.759.564a1.55 1.55 0 01-1.91-.048L.554 13.089a1.52 1.52 0 01-.444-1.742l.492-1.219a1.54 1.54 0 011.3-.955 4.397 4.397 0 01.697-1.782l.58-.863a6.797 6.797 0 001.023-2.449l.337-1.672zm6.304 7.069a1.53 1.53 0 00-.488.618l-.768 1.777a2.581 2.581 0 01-1.303.353h-1.57c-.467 0-.915-.126-1.303-.353l-.768-1.777a1.528 1.528 0 00-.489-.618c.026-.322.114-.641.264-.938l1.258-2.495.007.007a2.583 2.583 0 003.632 0l.007-.007 1.258 2.495c.15.297.238.616.264.938zM9.041 4.269V3.056H8.014v.801c.218.044.431.117.634.218l.393.194zm-2.055-.412v-.801H5.96v1.213l.393-.194c.203-.101.417-.174.634-.218zm-4.953 6.33a.514.514 0 00-.477.32l-.492 1.219a.507.507 0 00.148.58l1.884 1.557a.517.517 0 00.637.017l.759-.565a.507.507 0 00.164-.608L3.7 10.495a.514.514 0 00-.472-.309H2.033zm11.411.32a.514.514 0 00-.477-.32h-1.195a.514.514 0 00-.472.308l-.956 2.212a.507.507 0 00.164.608l.759.565c.19.141.454.134.637-.017l1.884-1.557a.507.507 0 00.148-.58l-.492-1.22zM6.811 4.986a1.552 1.552 0 011.378 0l.498.247-.097.097a1.55 1.55 0 01-2.18 0l-.097-.097.498-.247z" fill="currentColor"/></svg>
